X:169
T: Heilige drei Koenige
N: A0532A
O: Europa, Mitteleuropa, Deutschland
N: Paderborner Gsgb. 1617.
R: Romanze, Ballade, Lied, religioeses Lied
M: 4/2
L: 1/4
K: G
G2G2d2 | d2d2c2_B2 | A4z2
c2 | c2c2c2c2 | _BdcBA3
d | =f2d2c2_Bc | A4G4z2
G2 | _B2B2c2cc | _B2AGA3
d | =f2ddc2_B2 | A4G4 | z2

@@@ Tune index: 482
